Numix-GalliumOS/64/actions/mail-encrypted.svg

<?xml version="1.0" encoding="UTF-8" standalone="no"?>
<svg
   xmlns:dc="http://purl.org/dc/elements/1.1/"
   xmlns:cc="http://creativecommons.org/ns#"
   xmlns:rdf="http://www.w3.org/1999/02/22-rdf-syntax-ns#"
   xmlns:svg="http://www.w3.org/2000/svg"
   xmlns="http://www.w3.org/2000/svg"
   xmlns:sodipodi="http://sodipodi.sourceforge.net/DTD/sodipodi-0.dtd"
   xmlns:inkscape="http://www.inkscape.org/namespaces/inkscape"
   width="64"
   height="64"
   viewBox="0 0 64 64"
   id="svg2"
   version="1.1"
   inkscape:version="0.91 r13725"
   sodipodi:docname="mail-encrypt.svg">
  <metadata
     id="metadata18">
    <rdf:RDF>
      <cc:Work
         rdf:about="">
        <dc:format>image/svg+xml</dc:format>
        <dc:type
           rdf:resource="http://purl.org/dc/dcmitype/StillImage" />
        <dc:title></dc:title>
      </cc:Work>
    </rdf:RDF>
  </metadata>
  <defs
     id="defs16" />
  <sodipodi:namedview
     pagecolor="#ffffff"
     bordercolor="#666666"
     borderopacity="1"
     objecttolerance="10"
     gridtolerance="10"
     guidetolerance="10"
     inkscape:pageopacity="0"
     inkscape:pageshadow="2"
     inkscape:window-width="1366"
     inkscape:window-height="704"
     id="namedview14"
     showgrid="false"
     inkscape:zoom="1"
     inkscape:cx="44.757298"
     inkscape:cy="6.2334548"
     inkscape:window-x="0"
     inkscape:window-y="27"
     inkscape:window-maximized="1"
     inkscape:current-layer="svg2">
    <inkscape:grid
       type="xygrid"
       id="grid4154" />
  </sodipodi:namedview>
  <path
     style="fill:#268bd2"
     d="M 4 16 C 0 16 0 16 0 20 L 0 60 C 0 64 0 64 4 64 L 60 64 C 64 64 64 64 64 60 C 64 47.125 64 27.4375 64 20 C 64 16 64 16 60 16 Z "
     id="path4" />
  <g
     style="fill-opacity:.102"
     id="g6">
    <path
       style="fill:#fff"
       d="M 1.75 16.027344 C 0.0625 16.214844 0 17.027344 0 20.023438 L 32 40 L 64 20.023438 C 64 16.027344 64 16.027344 60 16.027344 L 4 16.027344 C 3 16.027344 2.3125 15.964844 1.75 16.027344 Z "
       id="path8" />
    <path
       style="fill:#000"
       d="M 64 20 L 32 40 L 64 60 Z "
       id="path10" />
  </g>
  <path
     id="path4140"
     d="m 47,34 c 0,0 9,0 9,6.65039 l 0,5.355103 c 0,0 4,0.372437 4,1.877564 l 0,13.729248 C 60,62.875732 58.659668,64 57.1875,64 l -20.625,0 C 35.090332,64 34,62.875732 34,61.612305 l 0,-13.729248 c 0,-1.505127 4,-1.88855 4,-1.88855 L 38,40.65039 C 38,34 47,34 47,34 Z m 0,3 c 0,0 -6,0 -6,5.311157 L 41,46 53,46 53,42.311157 C 53,37 47,37 47,37 Z"
     style="fill:#dc322f;fill-opacity:1"
     inkscape:connector-curvature="0"
     sodipodi:nodetypes="cccssssssccccsccsc" />
  <path
     id="path4142"
     d="M 47.125001,50 C 44.916015,50 43.125,51.641764 43.125,53.666667 c 0,1.355306 0.68164,2.517253 1.875,3.151041 L 45,61 l 4,0 0,-4.182292 C 50.19336,56.18392 51.125,55.021973 51.125,53.666667 51.125,51.641764 49.333985,50 47.125001,50 Z"
     style="fill:#000000;fill-opacity:0.10199998;fill-rule:evenodd"
     inkscape:connector-curvature="0"
     sodipodi:nodetypes="ssccccss" />
</svg>

<svg xmlns="http://www.w3.org/2000/svg" viewBox="0 0 64 64">
 <path d="m 4 16 c -4 0 -4 0 -4 4 l 0 40 c 0 4 0 4 4 4 l 56 0 c 4 0 4 0 4 -4 c 0 -12.875 0 -32.563 0 -40 c 0 -4 0 -4 -4 -4 Z" style="fill:#268bd2"/>
 <g style="fill-opacity:0.102">
  <path d="m 1.75 16.03 c -1.688 0.188 -1.75 1 -1.75 3.996 l 32 19.977 l 32 -19.977 c 0 -3.996 0 -3.996 -4 -3.996 l -56 0 c -1 0 -1.688 -0.063 -2.25 0 Z" style="fill:#fff"/>
  <path d="m 64 20 l -32 20 l 32 20 Z" style="fill:#000"/>
 </g>
 <path d="m 47 34 c 0 0 9 0 9 6.65 l 0 5.355 c 0 0 4 0.372 4 1.878 l 0 13.729 c 0 1.263 -1.34 2.388 -2.813 2.388 l -20.625 0 c -1.472 0 -2.563 -1.124 -2.563 -2.388 l 0 -13.729 c 0 -1.505 4 -1.889 4 -1.889 l 0 -5.344 c 0 -6.65 9 -6.65 9 -6.65 m 0 3 c 0 0 -6 0 -6 5.311 l 0 3.689 12 0 0 -3.689 c 0 -5.311 -6 -5.311 -6 -5.311" style="fill:#dc322f;fill-opacity:1"/>
 <path d="m 47.13 50 c -2.209 0 -4 1.642 -4 3.667 c 0 1.355 0.682 2.517 1.875 3.151 l 0 4.182 l 4 0 0 -4.182 c 1.193 -0.634 2.125 -1.796 2.125 -3.151 0 -2.025 -1.791 -3.667 -4 -3.667" style="fill:#000;fill-opacity:0.102;fill-rule:evenodd"/>
</svg>
